assets/instagramIcon.svg

<svg width="30" height="30" viewBox="0 0 30 30" fill="none" xmlns="http://www.w3.org/2000/svg">
<path d="M9.99805 3C6.13905 3 3 6.14195 3 10.002V20.002C3 23.861 6.14195 27 10.002 27H20.002C23.861 27 27 23.858 27 19.998V9.99805C27 6.13905 23.858 3 19.998 3H9.99805ZM22 7C22.552 7 23 7.448 23 8C23 8.552 22.552 9 22 9C21.448 9 21 8.552 21 8C21 7.448 21.448 7 22 7ZM15 9C18.309 9 21 11.691 21 15C21 18.309 18.309 21 15 21C11.691 21 9 18.309 9 15C9 11.691 11.691 9 15 9ZM15 11C13.9391 11 12.9217 11.4214 12.1716 12.1716C11.4214 12.9217 11 13.9391 11 15C11 16.0609 11.4214 17.0783 12.1716 17.8284C12.9217 18.5786 13.9391 19 15 19C16.0609 19 17.0783 18.5786 17.8284 17.8284C18.5786 17.0783 19 16.0609 19 15C19 13.9391 18.5786 12.9217 17.8284 12.1716C17.0783 11.4214 16.0609 11 15 11Z" fill="#FFFFFF"/>
</svg>

<svg width="30" height="30" fill="none" xmlns="http://www.w3.org/2000/svg"><path d="M10 3a7 7 0 0 0-7 7v10a7 7 0 0 0 7 7h10a7 7 0 0 0 7-7V10a7 7 0 0 0-7-7H10Zm12 4a1 1 0 1 1 0 2 1 1 0 0 1 0-2Zm-7 2a6 6 0 1 1 0 12 6 6 0 0 1 0-12Zm0 2a4 4 0 1 0 0 8 4 4 0 0 0 0-8Z" fill="#FFF"/></svg>
